flaticon/seo-and-analytics/browser-38.svg

<svg xmlns="http://www.w3.org/2000/svg" width="32" height="32" viewBox="0 0 24 24">
    <path d="M2.800781 1.199219C1.921875 1.199219 1.199219 1.921875 1.199219 2.800781 1.199219 3.679688 1.921875 4.398438 2.800781 4.398438 3.679688 4.398438 4.398438 3.679688 4.398438 2.800781 4.398438 1.921875 3.679688 1.199219 2.800781 1.199219zM2.800781 3.601562C2.359375 3.601562 2 3.238281 2 2.800781 2 2.359375 2.359375 2 2.800781 2 3.238281 2 3.601562 2.359375 3.601562 2.800781 3.601562 3.238281 3.238281 3.601562 2.800781 3.601562zM6.398438 1.199219C5.519531 1.199219 4.800781 1.921875 4.800781 2.800781 4.800781 3.679688 5.519531 4.398438 6.398438 4.398438 7.28125 4.398438 8 3.679688 8 2.800781 8 1.921875 7.28125 1.199219 6.398438 1.199219zM6.398438 3.601562C5.960938 3.601562 5.601562 3.238281 5.601562 2.800781 5.601562 2.359375 5.960938 2 6.398438 2 6.839844 2 7.199219 2.359375 7.199219 2.800781 7.199219 3.238281 6.839844 3.601562 6.398438 3.601562zM10 1.199219C9.121094 1.199219 8.398438 1.921875 8.398438 2.800781 8.398438 3.679688 9.121094 4.398438 10 4.398438 10.878906 4.398438 11.601562 3.679688 11.601562 2.800781 11.601562 1.921875 10.878906 1.199219 10 1.199219zM10 3.601562C9.558594 3.601562 9.199219 3.238281 9.199219 2.800781 9.199219 2.359375 9.558594 2 10 2 10.441406 2 10.800781 2.359375 10.800781 2.800781 10.800781 3.238281 10.441406 3.601562 10 3.601562zM10 3.601562"/>
    <path d="M 22.878906 0 L 1.160156 0 C 0.519531 0 0 0.519531 0 1.160156 L 0 22.558594 C 0 23.359375 0.640625 24 1.441406 24 L 11.199219 24 L 11.199219 23.199219 L 1.441406 23.199219 C 1.078125 23.199219 0.800781 22.921875 0.800781 22.558594 L 0.800781 5.601562 L 23.199219 5.601562 L 23.199219 12.398438 L 24 12.398438 L 24 1.160156 C 24 0.519531 23.480469 0 22.878906 0 Z M 0.800781 4.800781 L 0.800781 1.160156 C 0.800781 0.960938 0.960938 0.800781 1.160156 0.800781 L 22.839844 0.800781 C 23.039062 0.800781 23.199219 0.960938 23.199219 1.160156 L 23.199219 4.800781 Z M 0.800781 4.800781"/>
    <path d="M7.601562 7.601562L2.398438 7.601562C2.160156 7.601562 2 7.761719 2 8 2 8.238281 2.160156 8.398438 2.398438 8.398438L7.601562 8.398438C7.839844 8.398438 8 8.238281 8 8 8 7.761719 7.839844 7.601562 7.601562 7.601562zM13.199219 7.601562L9.199219 7.601562C8.960938 7.601562 8.800781 7.761719 8.800781 8 8.800781 8.238281 8.960938 8.398438 9.199219 8.398438L13.199219 8.398438C13.441406 8.398438 13.601562 8.238281 13.601562 8 13.601562 7.761719 13.441406 7.601562 13.199219 7.601562zM15.601562 8.398438C15.839844 8.398438 16 8.238281 16 8 16 7.761719 15.839844 7.601562 15.601562 7.601562L14.800781 7.601562C14.558594 7.601562 14.398438 7.761719 14.398438 8 14.398438 8.238281 14.558594 8.398438 14.800781 8.398438zM11.199219 9.601562C11.199219 9.839844 11.359375 10 11.601562 10L17.601562 10C17.839844 10 18 9.839844 18 9.601562 18 9.359375 17.839844 9.199219 17.601562 9.199219L11.601562 9.199219C11.359375 9.199219 11.199219 9.359375 11.199219 9.601562zM4 9.601562C4 9.839844 4.160156 10 4.398438 10L10 10C10.238281 10 10.398438 9.839844 10.398438 9.601562 10.398438 9.359375 10.238281 9.199219 10 9.199219L4.398438 9.199219C4.160156 9.199219 4 9.359375 4 9.601562zM2.398438 10L2.800781 10C3.039062 10 3.199219 9.839844 3.199219 9.601562 3.199219 9.359375 3.039062 9.199219 2.800781 9.199219L2.398438 9.199219C2.160156 9.199219 2 9.359375 2 9.601562 2 9.839844 2.160156 10 2.398438 10zM2.398438 11.601562L6 11.601562C6.238281 11.601562 6.398438 11.441406 6.398438 11.199219 6.398438 10.960938 6.238281 10.800781 6 10.800781L2.398438 10.800781C2.160156 10.800781 2 10.960938 2 11.199219 2 11.441406 2.160156 11.601562 2.398438 11.601562zM8.398438 10.800781L7.601562 10.800781C7.359375 10.800781 7.199219 10.960938 7.199219 11.199219 7.199219 11.441406 7.359375 11.601562 7.601562 11.601562L8.398438 11.601562C8.640625 11.601562 8.800781 11.441406 8.800781 11.199219 8.800781 10.960938 8.640625 10.800781 8.398438 10.800781zM16 11.199219C16 10.960938 15.839844 10.800781 15.601562 10.800781L10 10.800781C9.761719 10.800781 9.601562 10.960938 9.601562 11.199219 9.601562 11.441406 9.761719 11.601562 10 11.601562L15.601562 11.601562C15.839844 11.601562 16 11.441406 16 11.199219zM2.398438 13.199219L7.601562 13.199219C7.839844 13.199219 8 13.039062 8 12.800781 8 12.558594 7.839844 12.398438 7.601562 12.398438L2.398438 12.398438C2.160156 12.398438 2 12.558594 2 12.800781 2 13.039062 2.160156 13.199219 2.398438 13.199219zM13.601562 12.800781C13.601562 12.558594 13.441406 12.398438 13.199219 12.398438L9.199219 12.398438C8.960938 12.398438 8.800781 12.558594 8.800781 12.800781 8.800781 13.039062 8.960938 13.199219 9.199219 13.199219L13.199219 13.199219C13.441406 13.199219 13.601562 13.039062 13.601562 12.800781zM12.398438 14L11.601562 14C11.359375 14 11.199219 14.160156 11.199219 14.398438 11.199219 14.640625 11.359375 14.800781 11.601562 14.800781L12.398438 14.800781C12.640625 14.800781 12.800781 14.640625 12.800781 14.398438 12.800781 14.160156 12.640625 14 12.398438 14zM10.398438 14.398438C10.398438 14.160156 10.238281 14 10 14L4.398438 14C4.160156 14 4 14.160156 4 14.398438 4 14.640625 4.160156 14.800781 4.398438 14.800781L10 14.800781C10.238281 14.800781 10.398438 14.640625 10.398438 14.398438zM2.398438 14.800781L2.800781 14.800781C3.039062 14.800781 3.199219 14.640625 3.199219 14.398438 3.199219 14.160156 3.039062 14 2.800781 14L2.398438 14C2.160156 14 2 14.160156 2 14.398438 2 14.640625 2.160156 14.800781 2.398438 14.800781zM2.398438 16.398438L6 16.398438C6.238281 16.398438 6.398438 16.238281 6.398438 16 6.398438 15.761719 6.238281 15.601562 6 15.601562L2.398438 15.601562C2.160156 15.601562 2 15.761719 2 16 2 16.238281 2.160156 16.398438 2.398438 16.398438zM7.601562 15.601562C7.359375 15.601562 7.199219 15.761719 7.199219 16 7.199219 16.238281 7.359375 16.398438 7.601562 16.398438L8.398438 16.398438C8.640625 16.398438 8.800781 16.238281 8.800781 16 8.800781 15.761719 8.640625 15.601562 8.398438 15.601562zM12 15.601562L10 15.601562C9.761719 15.601562 9.601562 15.761719 9.601562 16 9.601562 16.238281 9.761719 16.398438 10 16.398438L12 16.398438C12.238281 16.398438 12.398438 16.238281 12.398438 16 12.398438 15.761719 12.238281 15.601562 12 15.601562zM2.398438 18L7.601562 18C7.839844 18 8 17.839844 8 17.601562 8 17.359375 7.839844 17.199219 7.601562 17.199219L2.398438 17.199219C2.160156 17.199219 2 17.359375 2 17.601562 2 17.839844 2.160156 18 2.398438 18zM11.199219 17.199219L9.199219 17.199219C8.960938 17.199219 8.800781 17.359375 8.800781 17.601562 8.800781 17.839844 8.960938 18 9.199219 18L11.199219 18C11.441406 18 11.601562 17.839844 11.601562 17.601562 11.601562 17.359375 11.441406 17.199219 11.199219 17.199219zM10.398438 19.199219C10.398438 18.960938 10.238281 18.800781 10 18.800781L4.398438 18.800781C4.160156 18.800781 4 18.960938 4 19.199219 4 19.441406 4.160156 19.601562 4.398438 19.601562L10 19.601562C10.238281 19.601562 10.398438 19.441406 10.398438 19.199219zM2.398438 19.601562L2.800781 19.601562C3.039062 19.601562 3.199219 19.441406 3.199219 19.199219 3.199219 18.960938 3.039062 18.800781 2.800781 18.800781L2.398438 18.800781C2.160156 18.800781 2 18.960938 2 19.199219 2 19.441406 2.160156 19.601562 2.398438 19.601562zM2.398438 21.199219L6 21.199219C6.238281 21.199219 6.398438 21.039062 6.398438 20.800781 6.398438 20.558594 6.238281 20.398438 6 20.398438L2.398438 20.398438C2.160156 20.398438 2 20.558594 2 20.800781 2 21.039062 2.160156 21.199219 2.398438 21.199219zM7.601562 20.398438C7.359375 20.398438 7.199219 20.558594 7.199219 20.800781 7.199219 21.039062 7.359375 21.199219 7.601562 21.199219L8.398438 21.199219C8.640625 21.199219 8.800781 21.039062 8.800781 20.800781 8.800781 20.558594 8.640625 20.398438 8.398438 20.398438zM10 21.199219L10.800781 21.199219C11.039062 21.199219 11.199219 21.039062 11.199219 20.800781 11.199219 20.558594 11.039062 20.398438 10.800781 20.398438L10 20.398438C9.761719 20.398438 9.601562 20.558594 9.601562 20.800781 9.601562 21.039062 9.761719 21.199219 10 21.199219zM23.320312 19.199219C23.078125 19.160156 22.878906 19.320312 22.839844 19.519531 22.398438 21.71875 20.640625 23.199219 18.519531 23.199219 16.488281 23.199219 14.734375 21.871094 14.128906 20L16 20 16 19.199219 13.675781 19.199219C13.625 19.191406 13.570312 19.191406 13.519531 19.199219L12.800781 19.199219 12.800781 22.398438 13.601562 22.398438 13.601562 20.914062C14.464844 22.765625 16.363281 24 18.480469 24 21.039062 24 23.078125 22.28125 23.640625 19.679688 23.679688 19.441406 23.519531 19.238281 23.320312 19.199219zM23.199219 16.160156C22.304688 14.359375 20.511719 13.199219 18.480469 13.199219 16.039062 13.199219 13.878906 14.800781 13.199219 17.121094 13.160156 17.320312 13.28125 17.519531 13.480469 17.601562 13.679688 17.640625 13.878906 17.519531 13.960938 17.320312 14.519531 15.398438 16.441406 14 18.480469 14 20.300781 14 21.921875 15.09375 22.621094 16.800781L20.800781 16.800781 20.800781 17.601562 24 17.601562 24 14.398438 23.199219 14.398438zM23.199219 16.160156"/>
</svg>

<svg xmlns="http://www.w3.org/2000/svg" width="32" height="32" viewBox="0 0 24 24">
    <path d="M2.8 1.2c-.878 0-1.6.722-1.6 1.6 0 .88.722 1.598 1.6 1.598.88 0 1.598-.718 1.598-1.597 0-.88-.718-1.602-1.597-1.602zm0 2.402A.804.804 0 0 1 2 2.8C2 2.359 2.36 2 2.8 2c.438 0 .802.36.802.8 0 .438-.364.802-.801.802zm0 0M6.398 1.2c-.878 0-1.597.722-1.597 1.6 0 .88.719 1.598 1.597 1.598C7.281 4.398 8 3.68 8 2.801c0-.88-.719-1.602-1.602-1.602zm0 2.402a.801.801 0 0 1 0-1.602c.442 0 .801.36.801.8 0 .438-.36.802-.8.802zm0 0M10 1.2c-.879 0-1.602.722-1.602 1.6 0 .88.723 1.598 1.602 1.598.879 0 1.602-.718 1.602-1.597 0-.88-.723-1.602-1.602-1.602zm0 2.402a.804.804 0 0 1-.8-.801.802.802 0 0 1 1.6 0c0 .437-.359.8-.8.8zm0 0"/>
    <path d="M22.879 0H1.16C.52 0 0 .52 0 1.16V22.56C0 23.359.64 24 1.441 24H11.2v-.8H1.441a.629.629 0 0 1-.64-.641V5.602h22.398v6.796H24V1.16C24 .52 23.48 0 22.879 0zM.8 4.8V1.16C.8.96.96.8 1.16.8H22.84c.2 0 .36.16.36.36V4.8zm0 0"/>
    <path d="M7.602 7.602H2.398C2.16 7.602 2 7.762 2 8c0 .238.16.398.398.398h5.204C7.84 8.398 8 8.238 8 8c0-.238-.16-.398-.398-.398zm0 0M13.2 7.602h-4c-.24 0-.4.16-.4.398 0 .238.16.398.4.398h4c.241 0 .402-.16.402-.398 0-.238-.16-.398-.403-.398zm0 0M15.602 8.398c.238 0 .398-.16.398-.398 0-.238-.16-.398-.398-.398H14.8c-.242 0-.403.16-.403.398 0 .238.16.398.403.398zm0 0M11.2 9.602c0 .238.16.398.402.398h6c.238 0 .398-.16.398-.398 0-.243-.16-.403-.398-.403h-6c-.243 0-.403.16-.403.403zm0 0M4 9.602c0 .238.16.398.398.398H10c.238 0 .398-.16.398-.398 0-.243-.16-.403-.398-.403H4.398C4.16 9.2 4 9.36 4 9.602zm0 0M2.398 10h.403c.238 0 .398-.16.398-.398 0-.243-.16-.403-.398-.403h-.403C2.16 9.2 2 9.36 2 9.602c0 .238.16.398.398.398zm0 0M2.398 11.602H6c.238 0 .398-.16.398-.403 0-.238-.16-.398-.398-.398H2.398c-.238 0-.398.16-.398.398 0 .242.16.403.398.403zm0 0M8.398 10.8h-.796c-.243 0-.403.16-.403.4 0 .241.16.402.403.402h.796c.243 0 .403-.16.403-.403 0-.238-.16-.398-.403-.398zm0 0M16 11.2c0-.24-.16-.4-.398-.4H10c-.238 0-.398.16-.398.4 0 .241.16.402.398.402h5.602c.238 0 .398-.16.398-.403zm0 0M2.398 13.2h5.204c.238 0 .398-.16.398-.4 0-.241-.16-.402-.398-.402H2.398c-.238 0-.398.16-.398.403 0 .238.16.398.398.398zm0 0M13.602 12.8c0-.241-.16-.402-.403-.402h-4c-.238 0-.398.16-.398.403 0 .238.16.398.398.398h4c.242 0 .403-.16.403-.398zm0 0M12.398 14h-.796c-.243 0-.403.16-.403.398 0 .243.16.403.403.403h.796c.243 0 .403-.16.403-.403 0-.238-.16-.398-.403-.398zm0 0M10.398 14.398c0-.238-.16-.398-.398-.398H4.398c-.238 0-.398.16-.398.398 0 .243.16.403.398.403H10c.238 0 .398-.16.398-.403zm0 0M2.398 14.8h.403c.238 0 .398-.16.398-.402 0-.238-.16-.398-.398-.398h-.403c-.238 0-.398.16-.398.398 0 .243.16.403.398.403zm0 0M2.398 16.398H6c.238 0 .398-.16.398-.398 0-.238-.16-.398-.398-.398H2.398c-.238 0-.398.16-.398.398 0 .238.16.398.398.398zm0 0M7.602 15.602c-.243 0-.403.16-.403.398 0 .238.16.398.403.398h.796c.243 0 .403-.16.403-.398 0-.238-.16-.398-.403-.398zm0 0M12 15.602h-2c-.238 0-.398.16-.398.398 0 .238.16.398.398.398h2c.238 0 .398-.16.398-.398 0-.238-.16-.398-.398-.398zm0 0M2.398 18h5.204c.238 0 .398-.16.398-.398 0-.243-.16-.403-.398-.403H2.398c-.238 0-.398.16-.398.403 0 .238.16.398.398.398zm0 0M11.2 17.2h-2c-.24 0-.4.16-.4.402 0 .238.16.398.4.398h2c.241 0 .402-.16.402-.398 0-.243-.16-.403-.403-.403zm0 0M10.398 19.2c0-.24-.16-.4-.398-.4H4.398c-.238 0-.398.16-.398.4 0 .241.16.402.398.402H10c.238 0 .398-.16.398-.403zm0 0M2.398 19.602h.403c.238 0 .398-.16.398-.403 0-.238-.16-.398-.398-.398h-.403c-.238 0-.398.16-.398.398 0 .242.16.403.398.403zm0 0M2.398 21.2H6c.238 0 .398-.16.398-.4 0-.241-.16-.402-.398-.402H2.398c-.238 0-.398.16-.398.403 0 .238.16.398.398.398zm0 0M7.602 20.398c-.243 0-.403.16-.403.403 0 .238.16.398.403.398h.796c.243 0 .403-.16.403-.398 0-.242-.16-.403-.403-.403zm0 0M10 21.2h.8c.24 0 .4-.16.4-.4 0-.241-.16-.402-.4-.402H10c-.238 0-.398.16-.398.403 0 .238.16.398.398.398zm0 0M23.32 19.2a.415.415 0 0 0-.48.32c-.442 2.199-2.2 3.68-4.32 3.68a4.624 4.624 0 0 1-4.391-3.2H16v-.8h-2.324a.524.524 0 0 0-.156 0h-.72v3.198h.802v-1.484A5.389 5.389 0 0 0 18.48 24c2.56 0 4.598-1.719 5.16-4.32a.417.417 0 0 0-.32-.48zm0 0M23.2 16.16c-.895-1.8-2.688-2.96-4.72-2.96-2.44 0-4.601 1.6-5.28 3.921-.04.2.081.399.28.48.2.04.399-.081.48-.28.56-1.923 2.481-3.321 4.52-3.321 1.82 0 3.442 1.094 4.141 2.8h-1.82v.802H24v-3.204h-.8zm0 0"/>
</svg>
